X:1
T:(from: Matthäus-Passion BWV 244
T:54. Choral: O Haupt vall Blut und Wunden)
T:Tune: Hans L. Hassler, 1601; adapt. and harm. Johann S. Bach in St. Matthew Passion, 1729 
T:Text improved: tr. James W. Alexander,1830, alt. from or.t."Salve,caput cruentatum"
T:(from: Matthäus-Passion BWV 244 54. Choral: O Haupt vall Blut und Wunden)
C:Tune: Hans L. Hassler, 1601;
C:adapt. and harm. Johann S. Bach
C:in St. Matthew Passion, 1729
Z:Text improved:
Z:tr. James W. Alexander,1830, alt.
Z:from or.t."Salve,caput cruentatum"
%%score [ ( 1 2 ) ( 3 4 ) ]
L:1/8
Q:1/4=80
M:4/4
K:C
V:1 treble nm="SOPRANO ALTO" snm="S. A."
V:2 treble 
V:3 bass nm="TENOR BASS" snm="T. B."
V:4 bass 
V:1
"^1.""^2.""^3.""^Andante" E2 | A2 G2 F2 E2 | D4 E2 B2 | c2 c2 (BA) B2 | A6 |"^3.""^2.""^1." E2 | %6
w: O|sa- cred head, now|wound- ed, with|grief and shame * weighed|down,|now|
w: My|Lord, what you did|suf- fer, was|all for sin- * ners'|gain;|mine,|
w: What|lan- guage shall I|bor- row to|thank you, dear- * est|Friend,|for|
w: 4.|Sav- ior, be you|near me when|death is at * my|door;|4.|
 A2 G2 F2 E2 | D4 E2 B2 | c2 c2 (BA) B2 | A6 |"^3.""^2.""^1." c2 | (BA) G2 A2 B2 | c4 c2 G2 | %13
w: scorn- ful- ly sur-|round- ed with|thorns, your on- * ly|crown.|O|sa- * cred head, what|glo- ry and|
w: mine was the trans-|gres- sion, but|yours the dead- * ly|pain.|So|here * I kneel, my|Sav- ior, for|
w: this, your dy- ing|sor- row, your|mer- cy with- * out|end?|Lord,|make * me yours for-|ev- er, a|
w: let your pres- ence|cheer me, for-|sake me nev- * er-|more!|4.|soul * and bod- y|lan- guish, oh,|
 A2 G2 F2 F2 | E6 |"^1.""^2.""^3." c2 | (Bc) d2 c2 B2 | A4 B2 E2 | F2 E2 D2 G2 | E6 |] %20
w: bless- ing you have|known!|Yet,|though * de- spised and|gor- y, I|claim you as my|own.|
w: I de- serve your|place;|look|on * me with your|fa- vor and|save me by your|grace.|
w: loy- al ser- vant|true,|and|let * me nev- er,|nev- er out-|live my love for|you.|
w: leave me not a-|lone,|4.|take * a- way mine|an- guish by|vir- tue of yours|own!|
[M:4/4]"^3.""^1.""^2.""^Andante"[Q:1/4=80] E2 | A2 G2 F2 E2 | D4 !fermata!E2 B2 | c2 c2 (BA) B2 | %24
w: O|sa- cred head, now|wound- ed, with|grief and shame * weighed|
w: My|Lord, what you did|suf- fer, was|all for sin- * ners'|
w: What|lan- guage shall I|bor- row to|thank you, dear- * est|
w: 4.|Sav- ior, be you|near me when|death is at * my|
 A6 |"^3.""^1.""^2." E2 | A2 G2 F2 E2 | D4 !fermata!E2 B2 | c2 c2 (BA) B2 | A6 | %30
w: down,|now|scorn- ful- ly sur-|round- ed with|thorns, your on- * ly|crown.|
w: gain;|mine,|mine was the trans-|gres- sion, but|yours the dead- * ly|pain.|
w: Friend,|for|this, your dy- ing|sor- row, your|mer- cy with- * out|end?|
w: door;|4.|let your pres- ence|cheer me, for-|sake me nev- * er-|more!|
"^2.""^1.""^3." c2 | (BA) G2 A2 B2 | c4 !fermata!c2 G2 | A2 G2 (FE) F2 | E6 |"^1.""^2.""^3." c2 | %36
w: O|sa- * cred head, what|glo- ry and|bless- ing you * have|known!|Yet,|
w: So|here * I kneel, my|Sav- ior, for|I de- serve * your|place;|look|
w: Lord,|make * me yours for-|ev- er, a|loy- al ser- * vant|true,|and|
w: 4.|soul * and bod- y|lan- guish, oh,|leave me not * a-|lone,|4.|
 (Bc) d2 c2 B2 | A4 !fermata!B2 E2 | F2 E2 D2 G2 | !fermata!E6 |] %40
w: though * de- spised and|gor- y, I|claim you as my|own.|
w: on * me with your|fa- vor and|save me by your|grace.|
w: let * me nev- er,|nev- er out-|live my love for|you.|
w: take * a- way mine|an- guish by|vir- tue of yours|own!|
V:2
 C2 | C2 C2 (CD) (DC) | (C2 B,2) C2 D2 | (CD) E2 E2 (ED) | C6 | C2 | C2 C2 (CD) (DC) | %7
 (C2 B,2) C2 D2 | (CD) E2 E2 (ED) | C6 | (AG) | F2 (ED) C2 F2 | (F2 ED) E2 E2 | F2 E2 E2 D2 | ^C6 | %15
 D2 | D2 D2 E2 D2 | (E2 D2) D2 C2 | (CB,) C2 C2 B,2 | C6 |][M:4/4] C2 | (CD) E2 (A,B,) C2 | %22
 (C2 B,2) C2 E2 | E2 E2 E2 (ED) | C6 | C2 | (CD) E2 (A,B,) C2 | (C2 B,2) C2 E2 | E2 E2 E2 (ED) | %29
 C6 | E2 | D2 (DC) C2 F2 | (F2 ED) E2 E2 | (ED) E2 (D^C) D2 | ^C6 | D2 | D2 G2 G2 G2 | %37
 (G2 ^F2) G2 (CB,) | (A,B,) C2 C2 B,2 | C6 |] %40
V:3
 G,2 | F,2 G,2 (A,G,) G,2 | (A,2 G,2) G,2 ^G,2 | E,2 A,2 A,2 ^G,2 | A,6 | G,2 | %6
 F,2 G,2 (A,G,) G,2 | (A,2 G,2) G,2 ^G,2 | E,2 A,2 A,2 ^G,2 | A,6 | E2 | (DC) B,2 (A,G,) (F,G,) | %12
 (A,2 G,F,) G,2 C2 | C2 (CB,) A,2 A,2 | A,6 | A,2 | G,2 (G,^F,) (G,A,) (B,G,) | %17
 (E,A, ^F,2) G,2 G,2 | =F,2 G,2 A,2 (D,G,) | G,6 |][M:4/4] A,2 | (A,B,) C2 D2 G,2 | %22
 (A,2 G,2) G,2 B,2 | B,2 A,2 A,2 ^G,2 | E,6 | A,2 | (A,B,) C2 D2 G,2 | (A,2 G,2) G,2 B,2 | %28
 B,2 A,2 A,2 ^G,2 | E,6 | (A,=G,) | F,2 G,2 G,2 (F,G,) | (A,2 G,F,) G,2 (C_B,) | A,2 A,2 A,2 A,2 | %34
 A,6 | A,2 | (G,A,) B,2 C2 D2 | (E2 D2) D2 G,2 | F,2 G,2 (G,F,/E,/) (D,G,) | G,6 |] %40
V:4
 C,2 | F,2 E,2 (A,,B,,) C,2 | (F,,2 G,,2) C,2 B,,2 | (A,,B,,) (C,D,) E,2 E,2 | A,,6 | C,2 | %6
 F,2 E,2 (A,,B,,) C,2 | ([F,,F,]2 G,,2) C,2 B,,2 | (A,,B,,) (C,D,) E,2 E,2 | A,,6 | A,2 | %11
 D,2 E,2 (F,E,) D,2 | C,4 C,2 C,2 | F,2 C,2 (D,E,) (F,G,) | A,6 | ^F,2 | G,2 B,,2 (E,^F,) G,2 | %17
 (C,2 D,2) G,,2 (C,B,,) | A,,2 G,,2 [F,,F,]2 G,,2 | C,6 |][M:4/4] (A,G,) | F,2 E,2 D,2 C,2 | %22
 ([F,,F,]2 [G,,G,]2) !fermata!C,2 ^G,,2 | (A,,B,,) (C,D,) E,2 E,2 | A,,6 | (A,G,) | %26
 F,2 E,2 D,2 C,2 | ([F,,F,]2 [G,,G,]2) !fermata!C,2 ^G,,2 | (A,,B,,) (C,D,) E,2 E,2 | A,,6 | A,,2 | %31
 D,2 E,2 (F,E,) D,2 | C,4 !fermata!C,2 C,2 | F,2 ^C,2 D,2 D,2 | A,,6 | [^F,,^F,]2 | %36
 [G,,G,]2 (G,^F,) E,2 D,2 | (C,2 D,2) !fermata![G,,G,]2 C,2 | D,2 (E,F,) G,2 G,,2 | !fermata!C,6 |] %40

